img/svg/16/net/links.svg

<svg xmlns="http://www.w3.org/2000/svg" viewBox="0 0 16 16" enable-background="new 0 0 16 16"><path d="M15 1v6h-6v-6h6zm-6 12.311h.134c.814 0 1.513-.188 2.095-.564.582-.376 1.019-.963 1.311-1.76l.437.133-.786 2.59h-3.191v1.29h6v-6h-6v4.311zm-3.009-.532c0 .178.072.311.218.398.145.089.334.133.568.133h.223v-4.31h-1.009v3.779zm-2.794.532h.611c.291 0 .494-.044.611-.133.116-.088.174-.221.174-.398v-3.78h-3.593v6h6v-1.291h-3.803v-.398zm3.012-10.426c-.146.089-.218.222-.218.398v3.717h1.009v-4.248h-.223c-.234 0-.423.044-.568.133zm-5.209 4.115h3.594v-3.717c0-.176-.059-.309-.174-.398-.118-.089-.321-.133-.612-.133h-.524v-.398h3.716v-1.354h-6v6z" fill="#ccc"/></svg>

<svg xmlns="http://www.w3.org/2000/svg" viewBox="0 0 16 16"><path fill="#ccc" d="M15 1v6H9V1h6zM9 13.311h.134c.814 0 1.513-.188 2.095-.564.582-.376 1.019-.963 1.311-1.76l.437.133-.786 2.59H9V15h6V9H9v4.311zm-3.009-.532c0 .178.072.311.218.398.145.089.334.133.568.133H7V9H5.991v3.779zm-2.794.532h.611c.291 0 .494-.044.611-.133.116-.088.174-.221.174-.398V9H1v6h6v-1.291H3.197v-.398zM6.209 2.885a.436.436 0 0 0-.218.398V7H7V2.752h-.223c-.234 0-.423.044-.568.133zM1 7h3.594V3.283c0-.176-.059-.309-.174-.398-.118-.089-.321-.133-.612-.133h-.524v-.398H7V1H1v6z"/></svg>
